X:1
T:Bay of Fundy
M:4/4
L:1/4
K:Bb
 G/2d/2| d/2 d3/2 z/2 c d/2| c2 z d/2e/2| f3/2 f/2 e d| c2 z| g/2g/2|\
 g3/2 g/2f/2 g3/2| f3 d| c3/2 B/2 c B| G4| z2 z G/2G/2| d3/2 d/2c/2 d3/2|\
 c2 d e| f3/2 f/2 e d| c2 z g/2g/2| g3/2 g/2 f g| f2 z d/2d/2| c d c/2 B3/2|\
 G4| z f f f| f4-| f f e d| c4| z2 z B/2c/2| d4-| d2 z G/2G/2| G4|\
 z2||
